!!!!SEGMENT: pl-gd--ee-1638--007-017_marenzio-luca--il-terzo-libro-de-madrigalia-a-sei-voci-donna-piu-d-altra.krn
!!!cenid: 15xx:858
!!!COM: Marenzio, Luca
!!!COM-rismid: pe30003955
!!!CDT: ~1553-1599/08/22
!!!CNT: Italian
!!!GTL: Il Terzo Libro de madrigalia a sei voci
!!!OTL: Donna piu d'altra
!!!OMV: 017
!!!PDT: 1585
!!!AGN:
!!!SMS-siglum: PL-GD
!!!SMS-shelfmark: Ee 1638
!!!SMS-variant:
!!!SMS-altvar:
!!!SMS-shelfwork: 007-017 G
!!!NIFC-rismid: 990039250
!!!URL-scan: https://repozytorium.nifc.pl/islandora/object/pl-gd%3A57883/datastream/PDF/view
!!!ONB-nifc: UWAGA: zbiór na stronach: Canto: s. 694-704, Alto: s. 542-552, Tenore: s. 390-400, Basso: s. 237-248, Quinto: s. 85-96, Sesto: s. 3-14. Uwaga: utwory podzielone wg tytułów w spisach treści dostępnych na końcu każdej księgi głosowej.
!!!AIN: 1 alto 1 bass 1 soprn 1 tenor 2 vox
!!!key: g
**kern	**text	**kern	**text	**kern	**text	**kern	**text	**kern	**text	**kern	**text
*part6	*part6	*part5	*part5	*part4	*part4	*part3	*part3	*part2	*part2	*part1	*part1
*staff6	*staff6	*staff5	*staff5	*staff4	*staff4	*staff3	*staff3	*staff2	*staff2	*staff1	*staff1
*I"BASSO	*	*I"SESTO	*	*I"TENORE	*	*I"ALTO	*	*I"QVINTO	*	*I"CANTO	*
*I'B	*	*I'V II	*	*I'T	*	*I'A	*	*I'V I	*	*I'S	*
*ICvox	*	*ICvox	*	*ICvox	*	*ICvox	*	*ICvox	*	*ICvox	*
*Ibass	*	*Ivox	*	*Itenor	*	*Ialto	*	*Ivox	*	*Isoprn	*
*clefF3	*	*clefC3	*	*clefC3	*	*clefC2	*	*clefG2	*	*clefG2	*
*k[b-]	*	*k[b-]	*	*k[b-]	*	*k[b-]	*	*k[b-]	*	*k[b-]	*
*g:	*	*g:	*	*g:	*	*g:	*	*g:	*	*g:	*
*M2/1	*	*M2/1	*	*M2/1	*	*M2/1	*	*M2/1	*	*M2/1	*
*met(C)	*	*met(C)	*	*met(C)	*	*met(C)	*	*met(C)	*	*met(C)	*
=1-	=1-	=1-	=1-	=1-	=1-	=1-	=1-	=1-	=1-	=1-	=1-
!LO:TX:t=P:problem:podwójnie zapisany znak przykluczowy, kolejno: BB- B-	!	!	!	!	!	!LO:TX:t=P:problem:podwójnie zapisany znak przykluczowy, kolejno: B- b-	!	!	!	!	!
00r	.	1r	.	0r	.	1r	.	1r	.	1g	DOn-
.	.	1G	DOn-	.	.	2r	.	1b-	DOn-	1dd	-na
.	.	.	.	.	.	1g\	DOn-	.	.	.	.
=2-	=2-	=2-	=2-	=2-	=2-	=2-	=2-	=2-	=2-	=2-	=2-
.	.	0d	-na	1r	.	.	.	1a	-na	4r	.
.	.	.	.	.	.	.	.	.	.	4dd\	piu
.	.	.	.	.	.	2f#X\	-na	.	.	4.dd\	d' al-
.	.	.	.	.	.	.	.	.	.	8cc\	-tr' a-
.	.	.	.	1G	DOn-	4r	.	4r	.	4.b-/	dor-
.	.	.	.	.	.	4g\	piu	4dd\	piu	.	.
.	.	.	.	.	.	.	.	.	.	8a/	-na
.	.	.	.	.	.	4g\	d' al-	4.dd\	d' al-	4b-/	di
.	.	.	.	.	.	4b-\	-tr' a-	.	.	4g/	bel-
.	.	.	.	.	.	.	.	8ee\	-tr' a-	.	.
=3-	=3-	=3-	=3-	=3-	=3-	=3-	=3-	=3-	=3-	=3-	=3-
1D	DOn-	4r	.	4d\	-na	4.fny\	-dor-	4.ff\	-dor-	2a/	-ta-
.	.	4d\	piu	4f\	piu	.	.	.	.	.	.
.	.	.	.	.	.	8g\	-na	8ee\	-na	.	.
.	.	4d\	d' al-	4.f\	d' al-	4a\	di	4ff\	di	2dd\	-te
.	.	4d\	-tr' a-	.	.	4b-\	bel-	4dd\	bel-	.	.
.	.	.	.	8f\	-tr' a-	.	.	.	.	.	.
1A	-na	4.c/	-dor-	4.e\	-dor-	1cc	-ta-	1ee	-ta-	1r	.
.	.	8B-/	-na	8d\	-na	.	.	.	.	.	.
.	.	4c/	di	4e\	di	.	.	.	.	.	.
.	.	4A/	bel-	4c\	bel-	.	.	.	.	.	.
=4-	=4-	=4-	=4-	=4-	=4-	=4-	=4-	=4-	=4-	=4-	=4-
4r	.	2B-/	-ta-	2d\	-te-	1f	-te	1dd	-te	4r	.
4d\	piu	.	.	.	.	.	.	.	.	4ff\	piu
4.d\	d' al-	2f\	-te	2a\	-te	.	.	.	.	4.ff\	d' al-
8c\	-tr' a-	.	.	.	.	.	.	.	.	8ee\	-tr' a-
*	*	*	*	*	*	*	*	*	*	*custos:dd	*
!	!	!	!	!	!	!	!	!	!	!LO:LB:g=original	!
4.B-\	-dor-	1r	.	1r	.	4r	.	4r	.	4.dd\	-dor-
.	.	.	.	.	.	2f\	di	2b-/	di	.	.
8A\	-na	.	.	.	.	.	.	.	.	8cc\	-na
4B-\	di	.	.	.	.	.	.	.	.	4dd\	di
4G\	bel-	.	.	.	.	4g\	bel-	4b-/	bel-	4ee\	bel-
*custos:A	*	*	*	*	*	*custos:e	*	*custos:a	*	*	*
!LO:LB:g=original	!	!	!	!	!	!LO:LB:g=original	!	!LO:LB:g=original	!	!	!
=5-	=5-	=5-	=5-	=5-	=5-	=5-	=5-	=5-	=5-	=5-	=5-
1A	-ta-	00r	.	1r	.	1e	-ta-	1a	-ta-	4cc\	-ta-
.	.	.	.	.	.	.	.	.	.	2dd\	.
.	.	.	.	.	.	.	.	.	.	4cc#X\	.
0D	-te	.	.	2r	.	1f#X	-te	1a	-te	1dd	-te
.	.	.	.	2d\	Se	.	.	.	.	.	.
*	*	*	*	*custos:d	*	*	*	*	*	*	*
!	!	!	!	!LO:LB:g=original	!	!	!	!	!	!	!
=6-	=6-	=6-	=6-	=6-	=6-	=6-	=6-	=6-	=6-	=6-	=6-
.	.	.	.	1.d	co' i	2r	.	2r	.	2r	.
.	.	.	.	.	.	2fny\	Se	2dd\	Se-	2a/	Se
!LO:TX:t=P:problem: VHV nie wyświetla pauzy	!	!	!	!	!	!	!	!	!	!	!
1r	.	.	.	.	.	2f\	co' i	2dd\	-co' i	2a/	co' i
!	!	!	!	!	!	!	!	!	!	!LO:N:acc=#	!
.	.	.	.	2d\	ſo-	2f\	ſo-	2dd\	ſo-	2bn/	ſo-
=7-	=7-	=7-	=7-	=7-	=7-	=7-	=7-	=7-	=7-	=7-	=7-
0r	.	0r	.	2c/	-a-	2e\	-a-	2g/	-a-	2ccny\	-a-
.	.	.	.	2B-/	-ui	2f\	-ui	2b-/	-ui	2dd\	-ui
.	.	.	.	1e-X	ſguar-	1g	ſguar-	1b-	ſguar-	1ee-X	ſguar-
=8-	=8-	=8-	=8-	=8-	=8-	=8-	=8-	=8-	=8-	=8-	=8-
1r	.	4r	.	0B-	-di	1f	-di	4.b-/	-di	2dd\	-di
.	.	4.B-/	M' a-	.	.	.	.	.	.	.	.
.	.	.	.	.	.	.	.	8cc\	.	.	.
.	.	.	.	.	.	.	.	2dd\	.	4.b-y\	M' a-
.	.	8c/	-uen-	.	.	.	.	.	.	.	.
.	.	4d\	-ta-	.	.	.	.	.	.	.	.
.	.	.	.	.	.	.	.	.	.	8cc\	-uen-
*	*	*custos:d	*	*	*	*	*	*	*	*	*
!	!	!LO:LB:g=original	!	!	!	!	!	!	!	!	!
2r	.	8d\	-te	.	.	4r	.	4.b-\	M' a-	4dd\	-ta-
.	.	8e\	nel	.	.	.	.	.	.	.	.
.	.	2f\	cor	.	.	4.B-/	M' a-	.	.	8dd\	-te
.	.	.	.	.	.	.	.	8cc\	-uen-	8eeny\	nel
4.BB-/	M' a-	.	.	.	.	.	.	4dd\	-ta-	2ff\	cor
.	.	.	.	.	.	8c/	-uen-	.	.	.	.
*	*	*	*ij	*	*	*	*	*	*	*	*
.	.	4.F/	M' a-	.	.	4d/	-ta-	8dd\	-te	.	.
8C/	-uen-	.	.	.	.	.	.	8ee\	nel	.	.
*	*	*	*	*	*	*	*	*	*	*custos:f	*
!	!	!	!	!	!	!	!	!	!	!LO:LB:g=original	!
=9-	=9-	=9-	=9-	=9-	=9-	=9-	=9-	=9-	=9-	=9-	=9-
4D/	-ta-	.	.	4.F/	M' a-	8d/	-te	1ff	cor	2r	.
.	.	8G/	-uen-	.	.	8e/	nel	.	.	.	.
8D/	-te	4A/	-ta-	.	.	2f\	cor	.	.	.	.
8E/	nel	.	.	8G/	-uen-	.	.	.	.	.	.
1F	cor	8A/	-te	4A/	-ta-	.	.	.	.	4.f/	M' a-
.	.	8B-/	nel	.	.	.	.	.	.	.	.
*	*	*	*	*	*	*	*ij	*	*	*	*
.	.	4c/	cor	8A/	-te	4.F/	M' a-	.	.	.	.
.	.	.	.	8B-/	nel	.	.	.	.	8g/	-uen-
.	.	2r	.	1c	cor	.	.	4.f/	M' a-	4a/	-ta-
.	.	.	.	.	.	8G/	-uen-	.	.	.	.
.	.	.	.	.	.	4A/	-ta-	.	.	8a/	-te
.	.	.	.	.	.	.	.	8g/	-uen-	8b-/	nal
4.F\	M' a-	4r	.	.	.	8A/	-te	4a/	-ta-	2cc\	cor
.	.	.	.	.	.	8B-/	nel	.	.	.	.
*	*	*	*	*	*	*	*	*custos:a	*	*	*
!	!	!	!	!	!	!	!	!LO:LB:g=original	!	!	!
*	*	*	*Xij	*	*	*	*	*	*	*	*
.	.	4.c/	M' a-	.	.	4c/	cor	8a/	-te	.	.
8G\	-uen-	.	.	.	.	.	.	8b-/	nel	.	.
*	*	*	*	*	*	*custos:c	*Xij	*	*	*	*
!	!	!	!	!	!	!LO:LB:g=original	!	!	!	!	!
=10-	=10-	=10-	=10-	=10-	=10-	=10-	=10-	=10-	=10-	=10-	=10-
4A\	-ta-	.	.	4.c\	M' a-	4r	.	2cc\	cor	2r	.
.	.	8d\	-uen-	.	.	.	.	.	.	.	.
8A\	-te	4e\	-ta-	.	.	4.c/	M' a-	.	.	.	.
8B-\	nel	.	.	8d\	-uen-	.	.	.	.	.	.
1c	cor	8e\	-te	4eny\	-ta-	.	.	2r	.	4.cc\	M' a-
.	.	8f\	nel	.	.	8d/	-uen-	.	.	.	.
.	.	2g\	cor	8e\	-te	4e/	-ta-	.	.	.	.
.	.	.	.	8f\	nel	.	.	.	.	8dd\	-uen-
.	.	.	.	2g\	cor	8e/	-te	4.cc\	M' a-	4ee\	-ta-
.	.	.	.	.	.	8f\	nel	.	.	.	.
.	.	4c/	ſa-	.	.	2g\	cor	.	.	8ee\	-te
.	.	.	.	.	.	.	.	8dd\	-uen-	8ff\	nel
2c\	ſa-	8g\	-et-	2e\	ſa-	.	.	4ee\	-ta-	2gg\	cor
.	.	8f\	.	.	.	.	.	.	.	.	.
.	.	8e\	.	.	.	4c/	ſaet-	8ee\	-te	.	.
.	.	8d\	.	.	.	.	.	8ff\	nel	.	.
*custos:c	*	*custos:c	*	*custos:e	*	*	*	*	*	*	*
!LO:LB:g=original	!	!LO:LB:g=original	!	!LO:LB:g=original	!	!	!	!	!	!	!
=11-	=11-	=11-	=11-	=11-	=11-	=11-	=11-	=11-	=11-	=11-	=11-
8c\	-et-	1c	.	8e\	-et-	4g\	-te	4gg\	cuor	2ee\	ſae-
8B-\	.	.	.	8d\	.	.	.	.	.	.	.
8A\	.	.	.	8c\	.	2a\	e	4cc\	ſa-	.	.
8G\	.	.	.	8B-/	.	.	.	.	.	.	.
4F/	-te	.	.	2A/	.	.	.	8cc\	-et-	2ff\	.
.	.	.	.	.	.	.	.	8b-/	.	.	.
4F/	e	.	.	.	.	4.a\	dar-	8a/	.	.	.
.	.	.	.	.	.	.	.	8g/	.	.	.
8F/	dar-	4c/	-t' e-	4A/	-te	.	.	4f/	.	2ff\	-tte
8E/	.	.	.	.	.	8g\	.	.	.	.	.
8D/	.	4.d\	-dar-	4A/	ſa-	8f\	.	4ff\	-te e	.	.
8C/	.	.	.	.	.	8e\	.	.	.	.	.
2BB-/	.	.	.	8B-/	-et-	2d/	.	8ff\	dar-	4r	.
.	.	8e\	.	8c/	.	.	.	8ee\	.	.	.
.	.	4f\	.	8d\	.	.	.	8dd\	.	4ff\	e
.	.	.	.	8e\	.	.	.	8cc\	.	.	.
*	*	*	*	*	*	*	*	*custos:b	*	*	*
!	!	!	!	!	!	!	!	!LO:LB:g=original	!	!	!
=12-	=12-	=12-	=12-	=12-	=12-	=12-	=12-	=12-	=12-	=12-	=12-
4BB-/	-di	4F/	-di	2f\	.	4d/	-di	4b-/	.	8ff\	dar-
.	.	.	.	.	.	.	.	.	.	8ee\	.
4BB-/	ſa-	4f\	ſa-	.	.	4d/	ſa-	4b-/	-di	8dd\	.
.	.	.	.	.	.	.	.	.	.	8cc\	.
*	*	*	*	*	*	*	*	*	*	*custos:dd	*
!	!	!	!	!	!	!	!	!	!	!LO:LB:g=original	!
8BB-/	-et-	4.f\	-et-	2B-/	-te	8d/	-et-	4r	.	4dd\	.
8C/	.	.	.	.	.	8e\	.	.	.	.	.
8D/	.	.	.	.	.	8f\	.	4f/	ſa-	4dd\	-di
8E/	.	16e\	.	.	.	8g\	.	.	.	.	.
.	.	16d\	.	.	.	.	.	.	.	.	.
*	*	*	*	*	*	*custos:a	*	*	*	*	*
!	!	!	!	!	!	!LO:LB:g=original	!	!	!	!	!
4F\	-te	2c/	.	4r	.	2a\	.	8f/	-et-	2r	.
.	.	.	.	.	.	.	.	8g/	.	.	.
4F\	e	.	.	4A/	e	.	.	8a/	.	.	.
.	.	.	.	.	.	.	.	8b-/	.	.	.
8F\	dar-	2c/	-te	8A/	dar-	2a\	-te e	4cc\	.	2ff\	Saet-
8G\	.	.	.	8B-/	.	.	.	.	.	.	.
8A\	.	.	.	8c/	.	.	.	4cc\	-t' e	.	.
8B-\	.	.	.	8d\	.	.	.	.	.	.	.
*custos:c	*	*	*	*	*	*	*	*	*	*	*
!LO:LB:g=original	!	!	!	!	!	!	!	!	!	!	!
=13-	=13-	=13-	=13-	=13-	=13-	=13-	=13-	=13-	=13-	=13-	=13-
1c	.	4r	.	2e\	.	8g\	dar-	8cc\	dar-	4ee\	-te
.	.	.	.	.	.	8f\	.	8dd\	.	.	.
.	.	4g\	e	.	.	8e\	.	8ee\	.	4cc\	e
.	.	.	.	.	.	8d/	.	8ff\	.	.	.
.	.	8g\	dar-	2c/	-di	2e/	.	2gg\	.	8cc\	dar-
.	.	8f\	.	.	.	.	.	.	.	8dd\	.
.	.	8e\	.	.	.	.	.	.	.	8ee\	.
.	.	8d\	.	.	.	.	.	.	.	8ff\	.
1c	-di	2e\	.	1r	.	2c/	-di	1ee	-di	2gg\	.
.	.	2c/	-di	.	.	2r	.	.	.	2g/	-di
=14-	=14-	=14-	=14-	=14-	=14-	=14-	=14-	=14-	=14-	=14-	=14-
1G	Si	1d	Si	1g	Si	00r	.	0r	.	1b-	Si
*	*	*	*	*custos:e	*	*	*	*	*	*	*
!	!	!	!	!LO:LB:g=original	!	!	!	!	!	!	!
1A	dol-	1c#X	dol-	1e	dol-	.	.	.	.	1a	dol-
=15-	=15-	=15-	=15-	=15-	=15-	=15-	=15-	=15-	=15-	=15-	=15-
1A	-ci	1cny	-ci	1e	-ci	.	.	2r	.	1a	-ci
.	.	.	.	.	.	.	.	4r	.	.	.
.	.	.	.	.	.	.	.	2a/	che	.	.
*	*	*custos:d	*	*	*	*	*	*	*	*	*
!	!	!LO:LB:g=original	!	!	!	!	!	!	!	!	!
4D/	che	4d\	che	4f\	che	.	.	.	.	1r	.
4C/	queſt'	4e\	queſt'	4g\	queſt'	.	.	4cc\	que-	.	.
2F/	al-	2f\	al-	2a\	al-	.	.	2cc\	-ſt' al-	.	.
=16-	=16-	=16-	=16-	=16-	=16-	=16-	=16-	=16-	=16-	=16-	=16-
2F/	-ma	2f\	-ma	4a\	-ma	4r	.	4cc\	-ma	4r	.
.	.	.	.	4f\	Si	4a\	Si	4cc\	Si	4ff\	Si
*	*	*	*	*	*	*	*	*custos:cc	*	*	*
!	!	!	!	!	!	!	!	!LO:LB:g=original	!	!	!
2r	.	2r	.	4.f\	ſcor-	4.a\	ſcor-	4.cc\	ſcor-	4.ff\	ſcor-
.	.	.	.	8g\	-d' o-	8g\	-d' o-	8b-/	-d' o-	8dd\	-d' o-
1r	.	1r	.	4d\	-gn' a-	4f#X\	-gn' a	4a/	-gn' a	4dd\	-gn' a-
.	.	.	.	4e-X\	-ſpra	2g\	ſpra	4g/	ſpra	4cc\	-ſpra
*	*	*	*	*	*	*	*	*	*	*custos:dd	*
!	!	!	!	!	!	!	!	!	!	!LO:LB:g=original	!
.	.	.	.	2d\	ſal-	.	.	2a/	ſal-	2dd\	ſal-
.	.	.	.	.	.	4f#X\	ſal-	.	.	.	.
=17-	=17-	=17-	=17-	=17-	=17-	=17-	=17-	=17-	=17-	=17-	=17-
4r	.	4r	.	2G/	-ma	2g\	-ma	4b-/	-ma	2dd\	-ma
4G\	Per	4g\	Per	.	.	.	.	4dd\	Per	.	.
2d\	che	2f#X\	che	4r	.	4r	.	2dd\	che	4r	.
.	.	.	.	4d\	Per	4a\	Per	.	.	4dd\	Per
4r	.	4r	.	2g\	che	2b-\	che	4r	.	2dd\	che
4G\	non	4g\	non	.	.	.	.	4gg\	non	.	.
4A\	mi	4c/	mi	2r	.	2a\	non	4ee\	mi	2r	.
4F\	mi-	4c/	mi-	.	.	.	.	4ff\	mi-	.	.
*	*	*	*	*	*	*custos:f	*	*	*	*	*
!	!	!	!	!	!	!LO:LB:g=original	!	!	!	!	!
=18-	=18-	=18-	=18-	=18-	=18-	=18-	=18-	=18-	=18-	=18-	=18-
2B-\	-ra-	2d\	-ra-	4r	.	4fny\	mi	2dd\	-ra-	4r	.
.	.	.	.	4G/	non	4g\	mi-	.	.	4gg\	non
2A\	-te	4a\	-te	4A/	mi	2c/	-ra-	2cc\	-te	4ee\	mi
.	.	4a\	non	4F/	mi-	.	.	.	.	4ff\	mi-
*	*	*	*	*custos:B-	*	*	*	*	*ij	*	*
!	!	!	!	!LO:LB:g=original	!	!	!	!	!	!	!
4r	.	4fny\	mi	2B-/	-ra-	2d/	-te	4r	.	2dd\	-ra-
4G\	non	4g\	mi-	.	.	.	.	4gg\	non	.	.
*custos:A	*	*	*	*	*	*	*	*	*	*	*
!LO:LB:g=original	!	!	!	!	!	!	!	!	!	!	!
4A\	mi	2c/	-ra-	2A/	-te	4r	.	4ee\	mi	2cc\	-te
4F\	mi-	.	.	.	.	4a\	non	4ff\	mi-	.	.
=19-	=19-	=19-	=19-	=19-	=19-	=19-	=19-	=19-	=19-	=19-	=19-
2B-\	-ra-	2d\	-te	4r	.	4f\	mi	2dd\	-ra-	2r	.
.	.	.	.	4d\	non	4g\	mi-	.	.	.	.
1.A	-te	2r	.	4eny\	mi	8c/	-ra-	2cc\	-te	4r	.
.	.	.	.	.	.	8d/	.	.	.	.	.
.	.	.	.	4c\	mi-	2e/	.	.	.	4ee\	non
*	*	*	*	*	*	*	*	*	*Xij	*	*
.	.	1r	.	2f\	-ra-	.	.	0a	Si	4cc\	mi
.	.	.	.	.	.	2d/	.	.	.	4dd\	mi-
.	.	.	.	2e\	-te	.	.	.	.	2ee\	-ra-
.	.	.	.	.	.	4c#X/	.	.	.	.	.
=20-	=20-	=20-	=20-	=20-	=20-	=20-	=20-	=20-	=20-	=20-	=20-
1D	Si	2r	.	2r	.	1d	-te	.	.	2ff\	-te
.	.	2A/	Si	2d\	Si	.	.	.	.	2f/	Si
*	*	*custos:A	*	*	*	*	*	*	*	*	*
!	!	!LO:LB:g=original	!	!	!	!	!	!	!	!	!
2D/	dol-	2A/	dol-	2d\	dol-	1r	.	2a/	dol-	2f/	dol-
*	*	*	*	*	*	*	*	*custos:b	*	*	*
!	!	!	!	!	!	!	!	!LO:LB:g=original	!	!	!
!	!	!	!	!	!	!	!	!LO:N:acc=#	!	!	!
2D/	-ce-	2F/	-ce-	2d\	-ce-	.	.	2bn/	-ce-	2f/	-ce-
=21-	=21-	=21-	=21-	=21-	=21-	=21-	=21-	=21-	=21-	=21-	=21-
2C/	-men-	2c\	-men-	2e-X\	-men-	0r	.	2cc\	-men-	2g/	-men-
2C/	-te	2c\	-te	2e-\	-te	.	.	2cc\	-te	2a/	-te
*	*	*	*	*	*	*	*	*	*	*custos:b	*
!	!	!	!	!	!	!	!	!	!	!LO:LB:g=original	!
1BB-	ſem-	1f	ſem-	1d	ſem-	.	.	1dd	ſem-	1b-	ſem-
=22-	=22-	=22-	=22-	=22-	=22-	=22-	=22-	=22-	=22-	=22-	=22-
2BB-/	-pre	1f	-pre	1d	-pre	2r	.	1dd	-pre	2b-/	-pre
2B-\	A-	.	.	.	.	2f\	A-	.	.	2dd\	A-
1B-	-cciò	2r	.	2r	.	1f	-cciò	2r	.	1dd	-cciò
.	.	2B-/	A-	2f\	A-	.	.	2dd\	A-	.	.
=23-	=23-	=23-	=23-	=23-	=23-	=23-	=23-	=23-	=23-	=23-	=23-
2r	.	1B-	-cciò	1f	-cciò	1r	.	0dd	-cciò	2r	.
2B-\	A-	.	.	.	.	.	.	.	.	2ff\	A-
1.B-	-cciò	1d	che	1f	che	1b-	A-	.	.	2ff\	-cciò
.	.	.	.	.	.	.	.	.	.	2ee\	che
=24-	=24-	=24-	=24-	=24-	=24-	=24-	=24-	=24-	=24-	=24-	=24-
.	.	1d	per	2f\	per	1.b-	-cciò	1r	.	2dd\	per
2A\	che	.	.	2f\	dol-	.	.	.	.	2cc\	dol-
*	*	*	*	*custos:g	*	*	*	*	*	*	*
!	!	!	!	!LO:LB:g=original	!	!	!	!	!	!	!
2G\	per	1d	dol-	1g	-ce-	.	.	1gg	A-	1b-	-ce-
2F/	dol-	.	.	.	.	2a\	che	.	.	.	.
*custos:E-	*	*	*	*	*	*custos:g	*	*	*	*	*
!LO:LB:g=original	!	!	!	!	!	!LO:LB:g=original	!	!	!	!	!
=25-	=25-	=25-	=25-	=25-	=25-	=25-	=25-	=25-	=25-	=25-	=25-
1.E-X	-ce-	1e-X	-ce-	1G	-zz' i	2g\	per	1.gg	-cciò	1b-	-zza
.	.	.	.	.	.	2f\	dol-	.	.	.	.
.	.	1B-	-zzi	0.G	cuor	2e-X\	-ce-	.	.	2r	.
2D/	-zz' il	.	.	.	.	2f\	-zz' il	2ff\	che	2dd\	A-
=26-	=26-	=26-	=26-	=26-	=26-	=26-	=26-	=26-	=26-	=26-	=26-
1C	cuor	1r	.	.	.	0g	cuor	2ee-X\	per	2gg\	-cciò
.	.	.	.	.	.	.	.	2dd\	dol-	2ff\	che
0C	ſi	1c	il	.	.	.	.	2cc\	-ce-	2ee-X\	per
.	.	.	.	.	.	.	.	2b-y/	-zz' il	2dd\	dol-
=27-	=27-	=27-	=27-	=27-	=27-	=27-	=27-	=27-	=27-	=27-	=27-
.	.	1.c	cuor	1r	.	1eny	ſi	2a/	cuor	2cc\	-cezz'
.	.	.	.	.	.	.	.	2g/	ſi	2b-/	il
*	*	*	*	*	*	*	*	*	*	*custos:a	*
!	!	!	!	!	!	!	!	!	!	!LO:LB:g=original	!
0D	ſtem-	.	.	1d	ſi	2f#X\	ſtem-	0dd	ſtem-	2a/	cuor
.	.	2B-/	ſi	.	.	2.g\	.	.	.	2g/	ſi
=28-	=28-	=28-	=28-	=28-	=28-	=28-	=28-	=28-	=28-	=28-	=28-
.	.	1A	ſtem-	1d	ſtem-	.	.	.	.	1a	ſtem-
.	.	.	.	.	.	8f#X\	.	.	.	.	.
.	.	.	.	.	.	8e\	.	.	.	.	.
.	.	.	.	.	.	2f#X\	.	.	.	.	.
!LO:N:vis=00	!	!LO:N:vis=00	!	!LO:N:vis=00	!	!LO:N:vis=00	!	!LO:N:vis=00	!	!LO:N:vis=00	!
!	!	!	!	!	!	!	!	!	!	!LO:N:acc=#	!
0.G	-pre.	0.G	-pre.	0.d	-pre.	0.g	-pre.	0.dd	-pre.	0.bn	-pre.
=29-	=29-	=29-	=29-	=29-	=29-	=29-	=29-	=29-	=29-	=29-	=29-
==	==	==	==	==	==	==	==	==	==	==	==
*-	*-	*-	*-	*-	*-	*-	*-	*-	*-	*-	*-
!!!system-decoration: [(s1,s2,s3,s4,s5,s6)]
!!!ENC: Berenika Jozajtis
!!!END: 2022-06-14
!!!ENC: Natalia Wrzos
!!!END: 2022-07-23
